svgs/thin/tally-4.svg

<svg xmlns="http://www.w3.org/2000/svg" viewBox="0 0 640 512"><!--! Font Awesome Pro 6.6.0 by @fontawesome - https://fontawesome.com License - https://fontawesome.com/license (Commercial License) Copyright 2024 Fonticons, Inc. --><path d="M136 40c0-4.4-3.6-8-8-8s-8 3.6-8 8l0 432c0 4.4 3.6 8 8 8s8-3.6 8-8l0-432zm128 0c0-4.4-3.6-8-8-8s-8 3.6-8 8l0 432c0 4.4 3.6 8 8 8s8-3.6 8-8l0-432zm120-8c-4.4 0-8 3.6-8 8l0 432c0 4.4 3.6 8 8 8s8-3.6 8-8l0-432c0-4.4-3.6-8-8-8zm136 8c0-4.4-3.6-8-8-8s-8 3.6-8 8l0 432c0 4.4 3.6 8 8 8s8-3.6 8-8l0-432z"/></svg>

<svg xmlns="http://www.w3.org/2000/svg" viewBox="0 0 640 512"><!--! Font Awesome Pro 6.4.2 by @fontawesome - https://fontawesome.com License - https://fontawesome.com/license (Commercial License) Copyright 2023 Fonticons, Inc. --><path d="M136 40c0-4.4-3.6-8-8-8s-8 3.6-8 8V472c0 4.4 3.6 8 8 8s8-3.6 8-8V40zm128 0c0-4.4-3.6-8-8-8s-8 3.6-8 8V472c0 4.4 3.6 8 8 8s8-3.6 8-8V40zm120-8c-4.4 0-8 3.6-8 8V472c0 4.4 3.6 8 8 8s8-3.6 8-8V40c0-4.4-3.6-8-8-8zm136 8c0-4.4-3.6-8-8-8s-8 3.6-8 8V472c0 4.4 3.6 8 8 8s8-3.6 8-8V40z"/></svg>
